src/assets/Imgs/profile/discordIcon.svg

<svg fill="none" height="16" viewBox="0 0 16 16" width="16" xmlns="http://www.w3.org/2000/svg"><path clip-rule="evenodd" d="m11.3322 13.0686s-.4315-.5154-.7911-.9709c1.5702-.4435 2.1695-1.4264 2.1695-1.4264-.4914.3237-.9589.5514-1.3784.7072-.5993.2517-1.1747.4195-1.73802.5154-1.15069.2158-2.20548.1559-3.10445-.012-.68322-.1318-1.27055-.3236-1.76199-.5154-.27568-.1078-.57534-.2397-.875-.4075-.01798-.012-.03596-.021-.05394-.03s-.03596-.0179-.05394-.0299c-.02397-.012-.03596-.024-.04794-.036-.21576-.1198-.33562-.2038-.33562-.2038s.57534.959 2.09761 1.4144c-.35959.4555-.80309.9949-.80309.9949-2.64897-.0839-3.65582-1.8219-3.65582-1.8219 0-3.85961 1.72603-6.98804 1.72603-6.98804 1.72602-1.29452 3.36815-1.25856 3.36815-1.25856l.11986.14384c-2.15753.62328-3.1524 1.5702-3.1524 1.5702s.2637-.14383.7072-.3476c1.28253-.56336 2.30137-.71918 2.72089-.75514l.02687-.00454c.06046-.0103.11411-.01943.17689-.01943.73117-.09589 1.55822-.11986 2.42124-.02397 1.13867.13185 2.36127.46746 3.60787 1.15068 0 0-.9469-.89897-2.98459-1.52226l.16781-.19178s1.64208-.03596 3.36818 1.25856c0 0 1.726 3.12843 1.726 6.98804 0 0-1.0188 1.738-3.6678 1.8219zm-4.2072-4.38109c0 .72487-.58763 1.31249-1.3125 1.31249s-1.3125-.58762-1.3125-1.31249c0-.72488.58763-1.3125 1.3125-1.3125s1.3125.58762 1.3125 1.3125zm3.0625 1.31249c.7249 0 1.3125-.58762 1.3125-1.31249 0-.72488-.5876-1.3125-1.3125-1.3125-.72487 0-1.3125.58762-1.3125 1.3125 0 .72487.58763 1.31249 1.3125 1.31249z" fill="#793aff" fill-rule="evenodd"/></svg>

<svg width="16" height="16" viewBox="0 0 16 16" fill="none" xmlns="http://www.w3.org/2000/svg">
<g id="Dis">
<path id="Exclude" fill-rule="evenodd" clip-rule="evenodd" d="M11.3322 13.0686C11.3322 13.0686 10.9007 12.5532 10.5411 12.0977C12.1113 11.6542 12.7106 10.6713 12.7106 10.6713C12.2192 10.995 11.7517 11.2227 11.3322 11.3785C10.7329 11.6302 10.1575 11.798 9.59418 11.8939C8.44349 12.1097 7.3887 12.0498 6.48973 11.8819C5.80651 11.7501 5.21918 11.5583 4.72774 11.3665C4.45206 11.2587 4.1524 11.1268 3.85274 10.959C3.83476 10.947 3.81678 10.938 3.7988 10.929C3.78082 10.92 3.76284 10.9111 3.74486 10.8991C3.72089 10.8871 3.7089 10.8751 3.69692 10.8631C3.48116 10.7433 3.3613 10.6593 3.3613 10.6593C3.3613 10.6593 3.93664 11.6183 5.45891 12.0737C5.09932 12.5292 4.65582 13.0686 4.65582 13.0686C2.00685 12.9847 1 11.2467 1 11.2467C1 7.38709 2.72603 4.25866 2.72603 4.25866C4.45205 2.96414 6.09418 3.0001 6.09418 3.0001L6.21404 3.14394C4.05651 3.76722 3.06164 4.71414 3.06164 4.71414C3.06164 4.71414 3.32534 4.57031 3.76884 4.36654C5.05137 3.80318 6.07021 3.64736 6.48973 3.6114L6.5166 3.60686C6.57706 3.59656 6.63071 3.58743 6.69349 3.58743C7.42466 3.49154 8.25171 3.46757 9.11473 3.56346C10.2534 3.69531 11.476 4.03092 12.7226 4.71414C12.7226 4.71414 11.7757 3.81517 9.73801 3.19188L9.90582 3.0001C9.90582 3.0001 11.5479 2.96414 13.274 4.25866C13.274 4.25866 15 7.38709 15 11.2467C15 11.2467 13.9812 12.9847 11.3322 13.0686ZM7.125 8.68751C7.125 9.41238 6.53737 10 5.8125 10C5.08763 10 4.5 9.41238 4.5 8.68751C4.5 7.96263 5.08763 7.37501 5.8125 7.37501C6.53737 7.37501 7.125 7.96263 7.125 8.68751ZM10.1875 10C10.9124 10 11.5 9.41238 11.5 8.68751C11.5 7.96263 10.9124 7.37501 10.1875 7.37501C9.46263 7.37501 8.875 7.96263 8.875 8.68751C8.875 9.41238 9.46263 10 10.1875 10Z" fill="#793AFF"/>
</g>
</svg>
